ui/StatusQ/src/assets/img/icons/node.svg

<svg fill="none" height="24" viewBox="0 0 24 24" width="24" xmlns="http://www.w3.org/2000/svg"><path clip-rule="evenodd" d="m9.32207 12.75c-.23505 0-.43474.1653-.5111.3876-.47217 1.3746-1.77621 2.3624-3.31097 2.3624-1.933 0-3.5-1.567-3.5-3.5s1.567-3.5 3.5-3.5c1.53476 0 2.8388.98785 3.31097 2.3624.07636.2223.27605.3876.5111.3876h5.35583c.2351 0 .4348-.1653.5111-.3876.4722-1.37455 1.7762-2.3624 3.311-2.3624 1.933 0 3.5 1.567 3.5 3.5s-1.567 3.5-3.5 3.5c-1.5348 0-2.8388-.9878-3.311-2.3624-.0763-.2223-.276-.3876-.5111-.3876zm-3.82207 1.25c1.10457 0 2-.8954 2-2s-.89543-2-2-2-2 .8954-2 2 .89543 2 2 2zm13 0c1.1046 0 2-.8954 2-2s-.8954-2-2-2-2 .8954-2 2 .8954 2 2 2z" fill="#000" fill-rule="evenodd"/></svg>

<svg width="24" height="24" viewBox="0 0 24 24" fill="none" xmlns="http://www.w3.org/2000/svg">
<path fill-rule="evenodd" clip-rule="evenodd" d="M9.32207 12.75C9.08702 12.75 8.88733 12.9153 8.81097 13.1376C8.3388 14.5122 7.03476 15.5 5.5 15.5C3.567 15.5 2 13.933 2 12C2 10.067 3.567 8.5 5.5 8.5C7.03476 8.5 8.3388 9.48785 8.81097 10.8624C8.88733 11.0847 9.08702 11.25 9.32207 11.25H14.6779C14.913 11.25 15.1127 11.0847 15.189 10.8624C15.6612 9.48785 16.9652 8.5 18.5 8.5C20.433 8.5 22 10.067 22 12C22 13.933 20.433 15.5 18.5 15.5C16.9652 15.5 15.6612 14.5122 15.189 13.1376C15.1127 12.9153 14.913 12.75 14.6779 12.75H9.32207ZM5.5 14C6.60457 14 7.5 13.1046 7.5 12C7.5 10.8954 6.60457 10 5.5 10C4.39543 10 3.5 10.8954 3.5 12C3.5 13.1046 4.39543 14 5.5 14ZM18.5 14C19.6046 14 20.5 13.1046 20.5 12C20.5 10.8954 19.6046 10 18.5 10C17.3954 10 16.5 10.8954 16.5 12C16.5 13.1046 17.3954 14 18.5 14Z" fill="#131D2F"/>
</svg>
